build/documents/AddTemplateOutline.svg

<svg xmlns="http://www.w3.org/2000/svg" fill="none" viewBox="0 0 24 24" focusable="false"><path d="M0 0H24V24H0z"/><path fill="#74767B" fill-rule="evenodd" d="M15.0262 4.3L7 4.3C6.06112 4.3 5.3 5.06112 5.3 6L5.3 16.028C5.3 16.9669 6.06112 17.728 7 17.728L11.4323 17.728C11.7913 17.728 12.0823 18.019 12.0823 18.378C12.0823 18.737 11.7913 19.028 11.4323 19.028L7 19.028C5.34315 19.028 4 17.6848 4 16.028L4 6C4 4.34314 5.34315 3 7 3L15.0262 3C16.683 3 18.0262 4.34315 18.0262 6L18.0262 12.4076C18.0262 12.7666 17.7352 13.0576 17.3762 13.0576C17.0172 13.0576 16.7262 12.7666 16.7262 12.4076L16.7262 6C16.7262 5.06112 15.9651 4.3 15.0262 4.3ZM8.00455 6.89764C7.64557 6.89764 7.35455 7.18866 7.35455 7.54764C7.35455 7.90663 7.64557 8.19764 8.00455 8.19764L14.0241 8.19764C14.3831 8.19764 14.6741 7.90663 14.6741 7.54764C14.6741 7.18866 14.3831 6.89764 14.0241 6.89764L8.00455 6.89764ZM8.00455 10.4313C7.64557 10.4313 7.35455 10.7224 7.35455 11.0813C7.35455 11.4403 7.64557 11.7313 8.00455 11.7313L10.6314 11.7313C10.9903 11.7313 11.2814 11.4403 11.2814 11.0813C11.2814 10.7224 10.9903 10.4313 10.6314 10.4313L8.00455 10.4313ZM16.6158 21.3535C16.6158 21.7125 16.9068 22.0035 17.2658 22.0035C17.6248 22.0035 17.9158 21.7125 17.9158 21.3535L17.9158 18.9937L20.2756 18.9937C20.6346 18.9937 20.9256 18.7026 20.9256 18.3437C20.9256 17.9847 20.6346 17.6937 20.2756 17.6937L17.9158 17.6937L17.9158 15.3339C17.9158 14.9749 17.6248 14.6839 17.2658 14.6839C16.9068 14.6839 16.6158 14.9749 16.6158 15.3339L16.6158 17.6937L14.256 17.6937C13.897 17.6937 13.606 17.9847 13.606 18.3437C13.606 18.7026 13.897 18.9937 14.256 18.9937L16.6158 18.9937L16.6158 21.3535Z"/></svg>

<svg xmlns="http://www.w3.org/2000/svg" fill="none" viewBox="0 0 24 24" focusable="false"><path fill="#74767B" fill-rule="evenodd" d="M7 4.29h8.02c.94 0 1.7.77 1.7 1.71v6.4c0 .36.29.65.65.65s.65-.29.65-.65V6c0-1.66-1.34-3-3-3H7C5.34 3 4 4.34 4 6v10.02c0 1.66 1.34 3 3 3h4.43c.36 0 .65-.29.65-.65s-.29-.65-.65-.65H7c-.94 0-1.7-.76-1.7-1.7V6c0-.94.76-1.71 1.7-1.71m1 2.6c-.36 0-.65.29-.65.65s.29.65.65.65h6.02c.36 0 .65-.29.65-.65s-.29-.65-.65-.65zm0 3.54c-.36 0-.65.29-.65.65s.29.65.65.65h2.63c.36 0 .65-.29.65-.65s-.29-.65-.65-.65zm8.61 10.92c0 .36.29.65.65.65s.65-.29.65-.65v-2.36h2.36c.36 0 .65-.29.65-.65s-.29-.65-.65-.65h-2.36v-2.36c0-.36-.29-.65-.65-.65s-.65.29-.65.65v2.36h-2.36c-.36 0-.65.29-.65.65s.29.65.65.65h2.36z"/></svg>
